X:134
T:St. Anne's Reel                                                                                   
M:C|                                                                                                
L:1/8                                                                                               
K:D                                                                                                 
e2|f2 fg fe dB|A2 FA A2 FA|B2 GB B2 GB|AB AG FA de|                                                 
f2 fg fe dB| (3ABA FA DA FA|BG Bd cd cA ce|d2 f2 d2 :|                                              
|: ag|fd fa fd fa|ag gf g2 gf|ed cB  AB ce|ba a^g a2 a=g|                                           
fd fa fd fa|ag gf g2 gf|ed cB Ac eg|fd ec d2 :|
